x-pack/solutions/search/plugins/search_indices/public/assets/curl.svg

<svg width="128" height="128" viewBox="0 0 128 128" fill="none" xmlns="http://www.w3.org/2000/svg">
<path d="M118.563 25.0671C115.713 25.0671 113.408 22.7575 113.408 19.9122C113.408 17.0628 115.713 14.7573 118.563 14.7573C121.408 14.7573 123.718 17.0628 123.718 19.9122C123.718 22.7575 121.408 25.0671 118.563 25.0671ZM67.3668 113.143C64.5174 113.143 62.2119 110.833 62.2119 107.988C62.2119 105.139 64.5174 102.833 67.3668 102.833C70.2122 102.833 72.5177 105.139 72.5177 107.988C72.5177 110.833 70.2122 113.143 67.3668 113.143ZM118.563 10.475C113.351 10.475 109.126 14.7004 109.126 19.9122C109.126 21.0243 109.406 22.0594 109.759 23.0497L65.4875 98.9283C61.2093 99.8253 57.9297 103.442 57.9297 107.988C57.9297 113.2 62.1551 117.425 67.3668 117.425C72.5745 117.425 76.7999 113.2 76.7999 107.988C76.7999 106.941 76.5198 105.983 76.2073 105.041L120.702 28.915C124.85 27.9205 128 24.3649 128 19.9122C128 14.7004 123.774 10.475 118.563 10.475Z" fill="#0C544C"/>
<path d="M79.9496 25.0671C77.1002 25.0671 74.7947 22.7575 74.7947 19.9122C74.7947 17.0628 77.1002 14.7573 79.9496 14.7573C82.795 14.7573 85.1005 17.0628 85.1005 19.9122C85.1005 22.7575 82.795 25.0671 79.9496 25.0671ZM28.7496 113.143C25.9043 113.143 23.5947 110.833 23.5947 107.988C23.5947 105.139 25.9043 102.833 28.7496 102.833C31.599 102.833 33.9045 105.139 33.9045 107.988C33.9045 110.833 31.599 113.143 28.7496 113.143ZM79.9496 10.475C74.7338 10.475 70.5125 14.7004 70.5125 19.9122C70.5125 21.0243 70.7926 22.0594 71.1457 23.0497L26.8744 98.9283C22.5922 99.8253 19.3125 103.442 19.3125 107.988C19.3125 113.2 23.5379 117.425 28.7496 117.425C33.9614 117.425 38.1868 113.2 38.1868 107.988C38.1868 106.941 37.9067 105.983 37.5942 105.041L82.0887 28.915C86.237 27.9205 89.3868 24.3649 89.3868 19.9122C89.3868 14.7004 85.1573 10.475 79.9496 10.475Z" fill="#073551"/>
<path d="M9.43713 40.8443C12.2825 40.8443 14.592 43.1539 14.592 45.9992C14.592 48.8446 12.2825 51.1541 9.43713 51.1541C6.58772 51.1541 4.28222 48.8446 4.28222 45.9992C4.28222 43.1539 6.58772 40.8443 9.43713 40.8443ZM9.43713 55.4363C14.6489 55.4363 18.8743 51.2109 18.8743 45.9992C18.8743 44.9561 18.5901 43.9941 18.2776 43.0524C17.0274 39.306 13.6016 36.5621 9.43713 36.5621C8.77145 36.5621 8.18696 36.8097 7.55782 36.9436C3.27966 37.8366 0 41.4532 0 45.9992C0 51.2109 4.22539 55.4363 9.43713 55.4363Z" fill="#073551"/>
<path d="M4.28222 78.9743C4.28222 76.1249 6.59179 73.8194 9.43713 73.8194C12.2825 73.8194 14.592 76.1249 14.592 78.9743C14.592 81.8197 12.2825 84.1252 9.43713 84.1252C6.59179 84.1252 4.28222 81.8197 4.28222 78.9743ZM18.8743 78.9743C18.8743 77.9271 18.5901 76.9692 18.2776 76.0275C17.0274 72.2811 13.6057 69.5372 9.43713 69.5372C8.77145 69.5372 8.18696 69.7848 7.55782 69.9147C3.27966 70.8117 0 74.4283 0 78.9743C0 84.182 4.22539 88.4115 9.43713 88.4115C14.6489 88.4115 18.8743 84.182 18.8743 78.9743Z" fill="#073551"/>
</svg>

<svg xmlns="http://www.w3.org/2000/svg" width="128" height="128" fill="none"><path fill="#0C544C" d="M118.563 25.067a5.154 5.154 0 0 1-5.155-5.155 5.15 5.15 0 0 1 5.155-5.155 5.155 5.155 0 1 1 0 10.31m-51.196 88.076a5.155 5.155 0 1 1 0-10.31 5.15 5.15 0 0 1 5.15 5.155 5.154 5.154 0 0 1-5.15 5.155m51.196-102.668a9.437 9.437 0 0 0-9.437 9.437c0 1.112.28 2.147.633 3.138L65.488 98.928c-4.279.897-7.558 4.514-7.558 9.06a9.437 9.437 0 0 0 9.437 9.437c5.207 0 9.433-4.225 9.433-9.437 0-1.047-.28-2.005-.593-2.947l44.495-76.126c4.148-.994 7.298-4.55 7.298-9.003 0-5.212-4.226-9.437-9.437-9.437"/><path fill="#073551" d="M79.95 25.067a5.154 5.154 0 0 1-5.155-5.155 5.15 5.15 0 0 1 5.155-5.155 5.15 5.15 0 0 1 5.15 5.155 5.154 5.154 0 0 1-5.15 5.155m-51.2 88.076a5.155 5.155 0 1 1 0-10.31 5.155 5.155 0 0 1 0 10.31m51.2-102.668a9.435 9.435 0 0 0-9.437 9.437c0 1.112.28 2.147.633 3.138L26.874 98.928c-4.282.897-7.561 4.514-7.561 9.06a9.437 9.437 0 0 0 18.874 0c0-1.047-.28-2.005-.593-2.947L82.09 28.915c4.148-.994 7.298-4.55 7.298-9.003 0-5.212-4.23-9.437-9.437-9.437M9.437 40.844A5.157 5.157 0 0 1 14.592 46a5.154 5.154 0 1 1-5.155-5.155m0 14.592A9.437 9.437 0 0 0 18.874 46c0-1.043-.284-2.005-.596-2.947-1.25-3.746-4.676-6.49-8.84-6.49-.667 0-1.251.248-1.88.382C3.28 37.837 0 41.454 0 45.999a9.437 9.437 0 0 0 9.437 9.437M4.282 78.974a5.154 5.154 0 1 1 10.31 0 5.154 5.154 0 0 1-5.155 5.151 5.154 5.154 0 0 1-5.155-5.15m14.592 0c0-1.047-.284-2.005-.596-2.947-1.25-3.746-4.672-6.49-8.84-6.49-.667 0-1.251.248-1.88.378C3.28 70.812 0 74.428 0 78.975c0 5.207 4.225 9.437 9.437 9.437s9.437-4.23 9.437-9.438"/></svg>
